;FLAVOR:Marlin
;TIME:1434
;Filament used: 0.348398m
;Layer height: 0.1
;MINX:96.786
;MINY:96.475
;MINZ:0.3
;MAXX:123.214
;MAXY:123.525
;MAXZ:10.1
;TARGET_MACHINE.NAME:Anet ET4
;POSTPROCESSED
;  [ChangeAtZ]
;Generated with Cura_SteamEngine 5.7.0
M140 S60
M105
M190 S60
M104 S200
M105
M109 S200
M82 ;absolute extrusion mode
G28 ;Home
G1 Z15.0 F2000 ;Move the platform
G92 E0
G92 E0
G1 F1500 E-6.5
;LAYER_COUNT:99
;LAYER:0
M107
M204 S1000
G0 F7500 X100.94 Y100.058 Z0.3
;TYPE:SKIRT
G1 F1500 E0
G1 X101.711 Y99.288 E0.05436
G1 X103.409 Y98.258 E0.15344
G1 X108.447 Y96.622 E0.41771
G1 X110.255 Y96.475 E0.50821
G1 X111.605 Y96.638 E0.57605
G1 X116.617 Y98.265 E0.83895
G1 X118.286 Y99.343 E0.93807
G1 X119.111 Y100.046 E0.99215
G1 X122.234 Y104.354 E1.25761
G1 X122.911 Y106.053 E1.34885
G1 X123.214 Y107.163 E1.40626
G1 X123.214 Y112.898 E1.69238
G1 X122.402 Y115.421 E1.82461
G1 X119.06 Y119.942 E2.1051
G1 X118.289 Y120.712 E2.15946
G1 X116.591 Y121.742 E2.25854
G1 X111.553 Y123.378 E2.52281
G1 X109.745 Y123.525 E2.61331
G1 X108.395 Y123.362 E2.68115
G1 X103.383 Y121.735 E2.94404
G1 X101.714 Y120.657 E3.04317
G1 X100.889 Y119.954 E3.09724
G1 X97.766 Y115.646 E3.36271
G1 X97.089 Y113.947 E3.45395
G1 X96.786 Y112.837 E3.51135
G1 X96.786 Y107.102 E3.79748
G1 X97.598 Y104.579 E3.92971
G1 X100.94 Y100.058 E4.2102
G0 F7500 X101.223 Y100.341
G1 F1500 X101.96 Y99.605 E4.26216
G1 X103.58 Y98.622 E4.3567
G1 X108.522 Y97.018 E4.61592
G1 X110.25 Y96.877 E4.70241
G1 X111.521 Y97.031 E4.76629
G1 X116.444 Y98.629 E5.02451
G1 X118.026 Y99.647 E5.11837
G1 X118.814 Y100.319 E5.17004
G1 X121.883 Y104.551 E5.43084
G1 X122.525 Y106.158 E5.51718
G1 X122.814 Y107.217 E5.57195
G1 X122.814 Y112.835 E5.85223
G1 X122.042 Y115.235 E5.97801
G1 X118.777 Y119.659 E6.25232
G1 X118.04 Y120.395 E6.30429
G1 X116.42 Y121.378 E6.39882
G1 X111.478 Y122.982 E6.65804
G1 X109.75 Y123.123 E6.74454
G1 X108.479 Y122.969 E6.80841
G1 X103.556 Y121.371 E7.06664
G1 X101.974 Y120.353 E7.16049
G1 X101.186 Y119.681 E7.21216
G1 X98.117 Y115.449 E7.47297
G1 X97.475 Y113.842 E7.55931
G1 X97.186 Y112.783 E7.61407
G1 X97.186 Y107.165 E7.89435
G1 X97.958 Y104.765 E8.02013
G1 X101.223 Y100.341 E8.29445
G0 F7500 X101.506 Y100.624
G1 F1500 X102.21 Y99.921 E8.34408
G1 X103.748 Y98.988 E8.43383
G1 X108.599 Y97.413 E8.68828
G1 X110.244 Y97.279 E8.77062
G1 X111.435 Y97.423 E8.83048
G1 X116.269 Y98.993 E9.08405
G1 X117.766 Y99.951 E9.17272
G1 X118.517 Y100.592 E9.22198
G1 X121.531 Y104.747 E9.47806
G1 X122.139 Y106.263 E9.55955
G1 X122.414 Y107.271 E9.61168
G1 X122.414 Y112.772 E9.88613
G1 X121.681 Y115.051 E10.00556
G1 X118.494 Y119.376 E10.27359
G1 X117.79 Y120.079 E10.32323
G1 X116.252 Y121.012 E10.41297
G1 X111.401 Y122.587 E10.66743
G1 X109.756 Y122.721 E10.74977
G1 X108.565 Y122.577 E10.80962
G1 X103.731 Y121.007 E11.06319
G1 X102.234 Y120.049 E11.15186
G1 X101.483 Y119.408 E11.20112
G1 X98.469 Y115.253 E11.45721
G1 X97.861 Y113.737 E11.5387
G1 X97.586 Y112.729 E11.59083
G1 X97.586 Y107.228 E11.86527
G1 X98.319 Y104.949 E11.98471
G1 X101.506 Y100.624 E12.25274
G0 F7500 X101.789 Y100.907
G1 F1500 X102.459 Y100.238 E12.29998
G1 X103.919 Y99.352 E12.38518
G1 X108.674 Y97.809 E12.63458
G1 X110.239 Y97.681 E12.71292
G1 X111.349 Y97.815 E12.7687
G1 X116.097 Y99.357 E13.01776
G1 X117.506 Y100.255 E13.10112
G1 X118.22 Y100.865 E13.14797
G1 X121.178 Y104.942 E13.39927
G1 X121.753 Y106.368 E13.47598
G1 X122.014 Y107.325 E13.52547
G1 X122.014 Y112.709 E13.79408
G1 X121.32 Y114.867 E13.90717
G1 X118.211 Y119.093 E14.16891
G1 X117.541 Y119.762 E14.21615
G1 X116.081 Y120.648 E14.30135
G1 X111.326 Y122.191 E14.55076
G1 X109.761 Y122.319 E14.6291
G1 X108.651 Y122.185 E14.68488
G1 X103.903 Y120.643 E14.93394
G1 X102.494 Y119.745 E15.01729
G1 X101.78 Y119.135 E15.06415
G1 X98.822 Y115.058 E15.31544
G1 X98.247 Y113.632 E15.39215
G1 X97.986 Y112.675 E15.44164
G1 X97.986 Y107.291 E15.71025
G1 X98.68 Y105.133 E15.82334
G1 X101.789 Y100.907 E16.08509
G0 F7500 X102.072 Y101.19
G1 F1500 X102.709 Y100.554 E16.13
G1 X104.087 Y99.718 E16.21041
G1 X108.75 Y98.204 E16.455
G1 X110.234 Y98.083 E16.52929
G1 X111.265 Y98.208 E16.5811
G1 X115.923 Y99.72 E16.82542
G1 X117.246 Y100.559 E16.90358
G1 X117.923 Y101.138 E16.94803
G1 X120.825 Y105.138 E17.19457
G1 X121.367 Y106.473 E17.26646
G1 X121.614 Y107.379 E17.31331
G1 X121.614 Y112.645 E17.57603
G1 X120.958 Y114.684 E17.68289
G1 X117.928 Y118.81 E17.93828
G1 X117.291 Y119.446 E17.98319
G1 X115.913 Y120.282 E18.0636
G1 X111.25 Y121.796 E18.30819
G1 X109.766 Y121.917 E18.38248
G1 X108.735 Y121.792 E18.43429
G1 X104.077 Y120.28 E18.67862
G1 X102.754 Y119.441 E18.75677
G1 X102.077 Y118.862 E18.80122
G1 X99.175 Y114.862 E19.04777
G1 X98.633 Y113.527 E19.11965
G1 X98.386 Y112.621 E19.1665
G1 X98.386 Y107.355 E19.42922
G1 X99.042 Y105.316 E19.53608
G1 X102.072 Y101.19 E19.79147
G0 F7500 X102.355 Y101.473
G1 F1500 X102.958 Y100.871 E19.83398
G1 X104.258 Y100.082 E19.90985
G1 X108.825 Y98.6 E20.1494
G1 X110.229 Y98.485 E20.21968
G1 X111.179 Y98.6 E20.26742
G1 X115.75 Y100.084 E20.50718
G1 X117.032 Y100.897 E20.58292
G1 X117.626 Y101.41 E20.62208
G1 X120.473 Y105.334 E20.86394
G1 X120.996 Y106.623 E20.93334
G1 X121.214 Y107.432 E20.97515
G1 X121.214 Y112.582 E21.23208
G1 X120.597 Y114.5 E21.3326
G1 X117.645 Y118.527 E21.58171
G1 X117.042 Y119.129 E21.62422
G1 X115.742 Y119.918 E21.70008
G1 X111.175 Y121.4 E21.93963
G1 X109.771 Y121.515 E22.00991
G1 X108.821 Y121.4 E22.05765
G1 X104.25 Y119.916 E22.29742
G1 X102.968 Y119.103 E22.37315
G1 X102.374 Y118.59 E22.41231
G1 X99.527 Y114.666 E22.65418
G1 X99.004 Y113.377 E22.72358
G1 X98.786 Y112.568 E22.76538
G1 X98.786 Y107.418 E23.02231
G1 X99.403 Y105.5 E23.12283
G1 X102.355 Y101.473 E23.37194
G0 F7500 X102.638 Y101.756
G1 F1500 X103.208 Y101.187 E23.41212
G1 X104.426 Y100.448 E23.4832
G1 X108.901 Y98.995 E23.71793
G1 X110.223 Y98.887 E23.7841
G1 X111.095 Y98.993 E23.82793
G1 X115.578 Y100.448 E24.06307
G1 X116.771 Y101.2 E24.13343
G1 X117.328 Y101.681 E24.17014
G1 X120.121 Y105.53 E24.4074
G1 X120.625 Y106.773 E24.47432
G1 X120.814 Y107.486 E24.51112
G1 X120.814 Y112.519 E24.76221
G1 X120.236 Y114.316 E24.85639
G1 X117.362 Y118.244 E25.09921
G1 X116.792 Y118.813 E25.13939
G1 X115.574 Y119.552 E25.21047
G1 X111.099 Y121.005 E25.4452
G1 X109.777 Y121.113 E25.51138
G1 X108.905 Y121.007 E25.5552
G1 X104.422 Y119.552 E25.79035
G1 X103.229 Y118.8 E25.8607
G1 X102.672 Y118.319 E25.89742
G1 X99.879 Y114.47 E26.13468
G1 X99.375 Y113.227 E26.20159
G1 X99.186 Y112.514 E26.23839
G1 X99.186 Y107.481 E26.48949
G1 X99.764 Y105.684 E26.58367
G1 X102.638 Y101.756 E26.82649
G0 F7500 X102.921 Y102.039
G1 F1500 X103.457 Y101.504 E26.86427
G1 X104.597 Y100.812 E26.93081
G1 X108.976 Y99.391 E27.16049
G1 X110.218 Y99.289 E27.22266
G1 X111.009 Y99.385 E27.26241
G1 X115.407 Y100.813 E27.49311
G1 X116.51 Y101.503 E27.55802
G1 X117.03 Y101.952 E27.59229
G1 X119.77 Y105.728 E27.82505
G1 X120.238 Y106.875 E27.88685
G1 X120.414 Y107.539 E27.92112
G1 X120.414 Y112.456 E28.16643
G1 X119.875 Y114.132 E28.25427
G1 X117.079 Y117.961 E28.49081
G1 X116.543 Y118.496 E28.52859
G1 X115.403 Y119.188 E28.59512
G1 X111.024 Y120.609 E28.82481
G1 X109.782 Y120.711 E28.88698
G1 X108.991 Y120.615 E28.92673
G1 X104.593 Y119.187 E29.15743
G1 X103.49 Y118.497 E29.22233
G1 X102.97 Y118.048 E29.25661
G1 X100.23 Y114.272 E29.48937
G1 X99.762 Y113.125 E29.55117
G1 X99.586 Y112.461 E29.58544
G1 X99.586 Y107.544 E29.83075
G1 X100.125 Y105.868 E29.91859
G1 X102.921 Y102.039 E30.15512
G0 F7500 X103.204 Y102.322
G1 F1500 X103.706 Y101.821 E30.19051
G1 X104.767 Y101.177 E30.25243
G1 X109.052 Y99.786 E30.47719
G1 X110.213 Y99.691 E30.53531
G1 X110.923 Y99.777 E30.57099
G1 X115.235 Y101.177 E30.79717
G1 X116.249 Y101.806 E30.8567
G1 X116.732 Y102.223 E30.88854
G1 X119.418 Y105.925 E31.11672
G1 X119.851 Y106.977 E31.17348
G1 X120.014 Y107.592 E31.20522
G1 X120.014 Y112.393 E31.44474
G1 X119.514 Y113.948 E31.52623
G1 X116.796 Y117.678 E31.75649
G1 X116.294 Y118.179 E31.79187
G1 X115.233 Y118.823 E31.85379
G1 X110.948 Y120.214 E32.07856
G1 X109.787 Y120.309 E32.13667
G1 X109.077 Y120.223 E32.17235
G1 X104.765 Y118.823 E32.39853
G1 X103.751 Y118.194 E32.45807
G1 X103.268 Y117.777 E32.4899
G1 X100.582 Y114.075 E32.71809
G1 X100.149 Y113.023 E32.77484
G1 X99.986 Y112.408 E32.80659
G1 X99.986 Y107.607 E33.04611
G1 X100.486 Y106.052 E33.1276
G1 X103.204 Y102.322 E33.35785
G0 F7500 X103.487 Y102.605
G1 F1500 X103.955 Y102.138 E33.39084
G1 X104.937 Y101.542 E33.44815
G1 X109.128 Y100.181 E33.66799
G1 X110.207 Y100.093 E33.722
G1 X110.839 Y100.17 E33.75376
G1 X115.063 Y101.541 E33.97532
G1 X115.987 Y102.109 E34.02943
G1 X116.436 Y102.497 E34.05904
G1 X119.068 Y106.124 E34.28261
G1 X119.464 Y107.079 E34.33419
G1 X119.614 Y107.645 E34.3634
G1 X119.614 Y112.329 E34.59709
G1 X119.152 Y113.765 E34.67235
G1 X116.513 Y117.395 E34.89625
G1 X116.045 Y117.862 E34.92924
G1 X115.063 Y118.458 E34.98655
G1 X110.872 Y119.819 E35.20638
G1 X109.793 Y119.907 E35.26039
G1 X109.161 Y119.83 E35.29216
G1 X104.937 Y118.459 E35.51372
G1 X104.013 Y117.891 E35.56783
G1 X103.564 Y117.503 E35.59743
G1 X100.932 Y113.876 E35.82101
G1 X100.536 Y112.921 E35.87259
G1 X100.386 Y112.355 E35.9018
G1 X100.386 Y107.671 E36.13549
G1 X100.848 Y106.235 E36.21075
G1 X103.487 Y102.605 E36.43465
G0 F7500 X103.811 Y102.84
G1 F1500 X104.201 Y102.457 E36.46192
G1 X105.107 Y101.907 E36.5148
G1 X109.205 Y100.576 E36.72976
G1 X110.201 Y100.495 E36.77961
G1 X110.753 Y100.562 E36.80736
G1 X114.892 Y101.906 E37.02447
G1 X115.725 Y102.412 E37.07309
G1 X116.14 Y102.771 E37.10047
G1 X118.716 Y106.32 E37.31925
G1 X119.094 Y107.232 E37.36851
G1 X119.214 Y107.696 E37.39242
G1 X119.214 Y112.266 E37.62041
G1 X118.791 Y113.581 E37.68933
G1 X116.189 Y117.16 E37.91009
G1 X115.799 Y117.543 E37.93736
G1 X114.893 Y118.093 E37.99024
G1 X110.795 Y119.424 E38.2052
G1 X109.799 Y119.505 E38.25506
G1 X109.247 Y119.438 E38.2828
G1 X105.108 Y118.094 E38.49991
G1 X104.275 Y117.588 E38.54853
G1 X103.86 Y117.229 E38.57591
G1 X101.284 Y113.68 E38.79469
G1 X100.906 Y112.768 E38.84395
G1 X100.786 Y112.304 E38.86786
G1 X100.786 Y107.734 E39.09586
G1 X101.209 Y106.419 E39.16477
G1 X103.811 Y102.84 E39.38553
G0 F7500 X104.135 Y103.075
G1 F1500 X104.448 Y102.775 E39.40716
G1 X105.278 Y102.271 E39.45561
G1 X109.28 Y100.972 E39.66552
G1 X110.196 Y100.897 E39.71137
G1 X110.667 Y100.954 E39.73504
G1 X114.722 Y102.271 E39.94775
G1 X115.517 Y102.754 E39.99416
G1 X115.841 Y103.041 E40.01575
G1 X118.364 Y106.516 E40.23
G1 X118.724 Y107.385 E40.27693
G1 X118.814 Y107.747 E40.29554
G1 X118.814 Y112.203 E40.51785
G1 X118.43 Y113.397 E40.58042
G1 X115.865 Y116.925 E40.79804
G1 X115.552 Y117.225 E40.81967
G1 X114.722 Y117.729 E40.86811
G1 X110.72 Y119.028 E41.07803
G1 X109.804 Y119.103 E41.12388
G1 X109.333 Y119.046 E41.14755
G1 X105.278 Y117.729 E41.36026
G1 X104.483 Y117.246 E41.40666
G1 X104.159 Y116.959 E41.42826
G1 X101.636 Y113.484 E41.6425
G1 X101.276 Y112.615 E41.68943
G1 X101.186 Y112.253 E41.70804
G1 X101.186 Y107.797 E41.93035
G1 X101.57 Y106.603 E41.99292
G1 X104.135 Y103.075 E42.21054
G0 F7500 X104.459 Y103.31
G1 F1500 X104.691 Y103.096 E42.22629
G1 X105.448 Y102.636 E42.27048
G1 X109.356 Y101.367 E42.47547
G1 X110.19 Y101.299 E42.51722
G1 X110.583 Y101.347 E42.53697
G1 X114.551 Y102.635 E42.7451
G1 X115.309 Y103.096 E42.78936
G1 X115.541 Y103.31 E42.80511
G1 X118.012 Y106.712 E43.01488
G1 X118.354 Y107.538 E43.05949
G1 X118.414 Y107.797 E43.07275
G1 X118.414 Y112.14 E43.28942
G1 X118.069 Y113.213 E43.34565
G1 X115.541 Y116.69 E43.56013
G1 X115.309 Y116.904 E43.57587
G1 X114.552 Y117.364 E43.62007
G1 X110.644 Y118.633 E43.82506
G1 X109.81 Y118.701 E43.8668
G1 X109.417 Y118.653 E43.88656
G1 X105.449 Y117.365 E44.09469
G1 X104.691 Y116.904 E44.13895
G1 X104.459 Y116.69 E44.1547
G1 X101.988 Y113.288 E44.36447
G1 X101.646 Y112.462 E44.40907
G1 X101.586 Y112.203 E44.42234
G1 X101.586 Y107.86 E44.63901
G1 X101.931 Y106.787 E44.69524
G1 X104.459 Y103.31 E44.90971
G0 F7500 X104.783 Y103.545
G1 F1500 X104.899 Y103.438 E44.91759
G1 X105.618 Y103.001 E44.95956
G1 X109.433 Y101.762 E45.15968
G1 X110.184 Y101.701 E45.19727
G1 X110.497 Y101.739 E45.213
G1 X114.381 Y103 E45.41673
G1 X115.101 Y103.438 E45.45878
G1 X115.217 Y103.545 E45.46665
G1 X117.66 Y106.908 E45.67403
G1 X117.984 Y107.691 E45.7163
G1 X118.014 Y107.844 E45.72408
G1 X118.014 Y112.077 E45.93527
G1 X117.708 Y113.029 E45.98516
G1 X115.217 Y116.455 E46.19648
G1 X115.101 Y116.562 E46.20436
G1 X114.382 Y116.999 E46.24634
G1 X110.567 Y118.238 E46.44645
G1 X109.816 Y118.299 E46.48404
G1 X109.503 Y118.261 E46.49977
G1 X105.619 Y117 E46.7035
G1 X104.899 Y116.562 E46.74555
G1 X104.783 Y116.455 E46.75342
G1 X102.34 Y113.092 E46.9608
G1 X102.016 Y112.309 E47.00308
G1 X101.986 Y112.156 E47.01086
G1 X101.986 Y107.923 E47.22204
G1 X102.292 Y106.971 E47.27193
G1 X104.783 Y103.545 E47.48326
G0 F7500 X105.107 Y103.78
G1 F1500 X105.789 Y103.365 E47.52309
G1 X109.508 Y102.158 E47.71816
G1 X110.217 Y102.1 E47.75365
G1 X110.373 Y102.119 E47.76149
G1 X114.211 Y103.365 E47.9628
G1 X114.893 Y103.78 E48.00263
G1 X117.308 Y107.104 E48.20761
G1 X117.614 Y107.844 E48.24757
G1 X117.614 Y112.013 E48.45556
G1 X117.346 Y112.846 E48.49921
G1 X114.893 Y116.22 E48.70733
G1 X114.211 Y116.635 E48.74716
G1 X110.492 Y117.842 E48.94223
G1 X109.783 Y117.9 E48.97772
G1 X109.627 Y117.881 E48.98556
G1 X105.789 Y116.635 E49.18687
G1 X105.107 Y116.22 E49.2267
G1 X102.692 Y112.896 E49.43169
G1 X102.386 Y112.156 E49.47164
G1 X102.386 Y107.987 E49.67963
G1 X102.654 Y107.154 E49.72329
G1 X105.107 Y103.78 E49.9314
G0 F7500 X105.383 Y104.08
G1 F1500 X105.96 Y103.729 E49.9651
G1 X109.583 Y102.553 E50.15513
G1 X110.249 Y102.499 E50.18847
G1 X114.041 Y103.73 E50.38737
G1 X114.616 Y104.08 E50.42095
G1 X116.956 Y107.3 E50.61954
G1 X117.214 Y107.924 E50.65323
G1 X117.214 Y111.95 E50.85408
G1 X116.985 Y112.662 E50.8914
G1 X114.617 Y115.92 E51.09234
G1 X114.04 Y116.271 E51.12603
G1 X110.417 Y117.447 E51.31607
G1 X109.751 Y117.501 E51.34941
G1 X105.959 Y116.27 E51.54831
G1 X105.384 Y115.92 E51.58189
G1 X103.044 Y112.7 E51.78048
G1 X102.786 Y112.076 E51.81416
G1 X102.786 Y108.05 E52.01502
G1 X103.015 Y107.338 E52.05234
G1 X105.383 Y104.08 E52.25328
G0 F7500 X105.66 Y104.38
G1 F1500 X106.13 Y104.094 E52.28072
G1 X109.66 Y102.948 E52.46589
G1 X110.204 Y102.904 E52.49311
G1 X113.87 Y104.094 E52.68541
G1 X114.34 Y104.38 E52.71285
G1 X116.604 Y107.496 E52.90501
G1 X116.814 Y108.004 E52.93244
G1 X116.814 Y111.887 E53.12616
G1 X116.624 Y112.478 E53.15713
G1 X114.34 Y115.62 E53.35093
G1 X113.87 Y115.906 E53.37838
G1 X110.34 Y117.052 E53.56354
G1 X109.796 Y117.096 E53.59077
G1 X106.13 Y115.906 E53.78306
G1 X105.66 Y115.62 E53.81051
G1 X103.396 Y112.504 E54.00267
G1 X103.186 Y111.996 E54.03009
G1 X103.186 Y108.113 E54.22381
G1 X103.376 Y107.522 E54.25479
G1 X105.66 Y104.38 E54.44858
G0 F7500 X105.937 Y104.68
G1 F1500 X106.3 Y104.459 E54.46978
G1 X109.737 Y103.343 E54.65007
G1 X110.158 Y103.309 E54.67114
G1 X113.7 Y104.459 E54.85693
G1 X114.063 Y104.68 E54.87814
G1 X116.252 Y107.692 E55.0639
G1 X116.414 Y108.084 E55.08506
G1 X116.414 Y111.823 E55.2716
G1 X116.262 Y112.295 E55.29634
G1 X114.063 Y115.32 E55.48292
G1 X113.7 Y115.541 E55.50412
G1 X110.263 Y116.657 E55.68441
G1 X109.842 Y116.691 E55.70548
G1 X106.3 Y115.541 E55.89127
G1 X105.937 Y115.32 E55.91247
G1 X103.748 Y112.308 E56.09823
G1 X103.586 Y111.916 E56.1194
G1 X103.586 Y108.177 E56.30593
G1 X103.738 Y107.705 E56.33067
G1 X105.937 Y104.68 E56.51725
G0 F7500 X106.492 Y105.277
G1 F1500 X106.592 Y105.205 E56.5234
