;FLAVOR:Marlin
;TIME:3182
;Filament used: 0.848333m
;Layer height: 0.1
;MINX:90.413
;MINY:89.801
;MINZ:0.3
;MAXX:129.587
;MAXY:130.23
;MAXZ:17
;TARGET_MACHINE.NAME:Anet ET4
;POSTPROCESSED
;  [ChangeAtZ]
;Generated with Cura_SteamEngine 5.7.0
M140 S60
M105
M190 S60
M104 S200
M105
M109 S200
M82 ;absolute extrusion mode
G28 ;Home
G1 Z15.0 F2000 ;Move the platform
G92 E0
G92 E0
G1 F1500 E-6.5
;LAYER_COUNT:168
;LAYER:0
M107
M204 S1000
G0 F7500 X97.002 Y94.638 Z0.3
;TYPE:SKIRT
G1 F1500 E0
G1 X97.772 Y93.867 E0.05436
G1 X99.472 Y92.835 E0.15358
G1 X108.44 Y89.92 E0.62404
G1 X110.195 Y89.801 E0.7118
G1 X111.344 Y89.855 E0.76918
G1 X120.51 Y92.831 E1.24998
G1 X122.072 Y93.768 E1.34085
G1 X123.11 Y94.712 E1.41085
G1 X128.607 Y102.283 E1.87763
G1 X129.284 Y103.982 E1.96887
G1 X129.587 Y105.092 E2.02628
G1 X129.586 Y114.97 E2.51909
G1 X128.768 Y117.494 E2.65146
G1 X122.998 Y125.362 E3.13824
G1 X122.228 Y126.133 E3.1926
G1 X120.527 Y127.166 E3.29189
G1 X111.57 Y130.074 E3.76172
G1 X109.704 Y130.23 E3.85514
G1 X108.426 Y130.074 E3.91937
G1 X99.446 Y127.159 E4.3904
G1 X97.774 Y126.078 E4.48973
G1 X96.949 Y125.375 E4.54381
G1 X91.393 Y117.717 E5.01583
G1 X90.716 Y116.018 E5.10707
G1 X90.413 Y114.908 E5.16448
G1 X90.414 Y105.03 E5.65729
G1 X91.232 Y102.506 E5.78966
G1 X97.002 Y94.638 E6.27644
G0 F7500 X97.285 Y94.921
G1 F1500 X98.021 Y94.184 E6.3284
G1 X99.642 Y93.2 E6.42301
G1 X108.515 Y90.316 E6.88848
G1 X110.176 Y90.201 E6.97155
G1 X111.274 Y90.253 E7.02639
G1 X120.342 Y93.197 E7.50204
G1 X121.833 Y94.091 E7.58877
G1 X122.809 Y94.979 E7.6546
G1 X128.256 Y102.48 E8.11709
G1 X128.898 Y104.087 E8.20342
G1 X129.187 Y105.146 E8.25819
G1 X129.186 Y114.906 E8.74512
G1 X128.407 Y117.31 E8.87119
G1 X122.715 Y125.079 E9.35169
G1 X121.979 Y125.816 E9.40365
G1 X120.357 Y126.801 E9.49833
G1 X111.493 Y129.679 E9.96328
G1 X109.709 Y129.828 E10.05259
G1 X108.512 Y129.682 E10.11275
G1 X99.62 Y126.795 E10.57917
G1 X98.034 Y125.774 E10.67328
G1 X97.246 Y125.102 E10.72494
G1 X91.744 Y117.52 E11.19231
G1 X91.102 Y115.913 E11.27865
G1 X90.813 Y114.854 E11.33341
G1 X90.814 Y105.094 E11.82034
G1 X91.593 Y102.69 E11.94642
G1 X97.285 Y94.921 E12.42691
G0 F7500 X97.568 Y95.204
G1 F1500 X98.27 Y94.501 E12.47648
G1 X99.812 Y93.565 E12.56647
G1 X108.591 Y90.712 E13.027
G1 X110.157 Y90.601 E13.10533
G1 X111.205 Y90.651 E13.15767
G1 X120.173 Y93.562 E13.62807
G1 X121.594 Y94.414 E13.71073
G1 X122.509 Y95.246 E13.77243
G1 X127.904 Y102.676 E14.23053
G1 X128.512 Y104.192 E14.31202
G1 X128.787 Y105.2 E14.36414
G1 X128.786 Y114.845 E14.84533
G1 X128.047 Y117.124 E14.96486
G1 X122.432 Y124.796 E15.43918
G1 X121.73 Y125.499 E15.48875
G1 X120.187 Y126.436 E15.57881
G1 X111.416 Y129.284 E16.03889
G1 X109.714 Y129.426 E16.12409
G1 X108.598 Y129.29 E16.18018
G1 X99.795 Y126.432 E16.64193
G1 X98.294 Y125.47 E16.73088
G1 X97.543 Y124.829 E16.78014
G1 X92.096 Y117.324 E17.24279
G1 X91.488 Y115.808 E17.32428
G1 X91.213 Y114.8 E17.3764
G1 X91.214 Y105.155 E17.85759
G1 X91.953 Y102.876 E17.97712
G1 X97.568 Y95.204 E18.45144
G0 F7500 X97.851 Y95.487
G1 F1500 X98.519 Y94.818 E18.49861
G1 X99.982 Y93.93 E18.58399
G1 X108.667 Y91.108 E19.03959
G1 X110.138 Y91.001 E19.11317
G1 X111.136 Y91.049 E19.16302
G1 X120.004 Y93.927 E19.62816
G1 X121.355 Y94.737 E19.70675
G1 X122.208 Y95.513 E19.76428
G1 X127.551 Y102.871 E20.21794
G1 X128.126 Y104.297 E20.29465
G1 X128.387 Y105.254 E20.34414
G1 X128.386 Y114.781 E20.81945
G1 X127.686 Y116.94 E20.93268
G1 X122.149 Y124.513 E21.40071
G1 X121.481 Y125.182 E21.44788
G1 X120.017 Y126.071 E21.53333
G1 X111.339 Y128.889 E21.98853
G1 X109.719 Y129.024 E22.06964
G1 X108.684 Y128.898 E22.12165
G1 X99.967 Y126.068 E22.57889
G1 X98.554 Y125.166 E22.66252
G1 X97.84 Y124.556 E22.70938
G1 X92.449 Y117.129 E23.16723
G1 X91.874 Y115.703 E23.24394
G1 X91.613 Y114.746 E23.29343
G1 X91.614 Y105.219 E23.76874
G1 X92.314 Y103.06 E23.88197
G1 X97.851 Y95.487 E24.35
G0 F7500 X98.134 Y95.77
G1 F1500 X98.768 Y95.135 E24.39477
G1 X100.152 Y94.295 E24.47554
G1 X108.743 Y91.504 E24.9262
G1 X110.119 Y91.401 E24.99504
G1 X111.067 Y91.447 E25.04239
G1 X119.835 Y94.292 E25.50228
G1 X121.116 Y95.06 E25.5768
G1 X121.908 Y95.78 E25.6302
G1 X127.198 Y103.067 E26.07944
G1 X127.74 Y104.402 E26.15133
G1 X127.987 Y105.308 E26.19818
G1 X127.986 Y114.717 E26.66759
G1 X127.325 Y116.757 E26.77458
G1 X121.866 Y124.23 E27.23629
G1 X121.232 Y124.865 E27.28106
G1 X119.847 Y125.706 E27.3619
G1 X111.262 Y128.494 E27.81222
G1 X109.724 Y128.622 E27.88922
G1 X108.77 Y128.506 E27.93716
G1 X100.14 Y125.704 E28.38984
G1 X98.814 Y124.862 E28.46821
G1 X98.137 Y124.283 E28.51265
G1 X92.802 Y116.933 E28.96576
G1 X92.26 Y115.598 E29.03764
G1 X92.013 Y114.692 E29.08449
G1 X92.014 Y105.283 E29.55391
G1 X92.675 Y103.243 E29.66089
G1 X98.134 Y95.77 E30.12261
G0 F7500 X98.417 Y96.053
G1 F1500 X99.017 Y95.452 E30.16497
G1 X100.322 Y94.66 E30.24113
G1 X108.819 Y91.9 E30.68685
G1 X110.099 Y91.801 E30.7509
G1 X110.998 Y91.845 E30.79581
G1 X119.666 Y94.657 E31.25044
G1 X120.877 Y95.383 E31.32089
G1 X121.607 Y96.047 E31.37012
G1 X126.846 Y103.263 E31.815
G1 X127.369 Y104.552 E31.8844
G1 X127.587 Y105.361 E31.9262
G1 X127.586 Y114.656 E32.38993
G1 X126.965 Y116.571 E32.49037
G1 X121.583 Y123.947 E32.94591
G1 X120.983 Y124.548 E32.98828
G1 X119.677 Y125.341 E33.0645
G1 X111.185 Y128.099 E33.50995
G1 X109.729 Y128.22 E33.58285
G1 X108.856 Y128.114 E33.62672
G1 X100.313 Y125.34 E34.07484
G1 X99.028 Y124.524 E34.15078
G1 X98.434 Y124.011 E34.18994
G1 X93.154 Y116.737 E34.63836
G1 X92.631 Y115.448 E34.70777
G1 X92.413 Y114.639 E34.74957
G1 X92.414 Y105.344 E35.2133
G1 X93.035 Y103.429 E35.31373
G1 X98.417 Y96.053 E35.76927
G0 F7500 X98.7 Y96.336
G1 F1500 X99.266 Y95.769 E35.80924
G1 X100.492 Y95.025 E35.88079
G1 X108.895 Y92.296 E36.32157
G1 X110.079 Y92.201 E36.38083
G1 X110.929 Y92.243 E36.42329
G1 X119.497 Y95.022 E36.87267
G1 X120.638 Y95.706 E36.93904
G1 X121.307 Y96.314 E36.98414
G1 X126.494 Y103.459 E37.42463
G1 X126.998 Y104.702 E37.49155
G1 X127.187 Y105.415 E37.52835
G1 X127.186 Y114.592 E37.98619
G1 X126.604 Y116.388 E38.08038
G1 X121.3 Y123.664 E38.5296
G1 X120.734 Y124.231 E38.56957
G1 X119.507 Y124.976 E38.64118
G1 X111.108 Y127.704 E39.08176
G1 X109.735 Y127.818 E39.15049
G1 X108.941 Y127.721 E39.1904
G1 X100.484 Y124.975 E39.63401
G1 X99.289 Y124.221 E39.7045
G1 X98.732 Y123.74 E39.74122
G1 X93.506 Y116.541 E40.18503
G1 X93.002 Y115.298 E40.25195
G1 X92.813 Y114.585 E40.28875
G1 X92.814 Y105.408 E40.74659
G1 X93.396 Y103.612 E40.84078
G1 X98.7 Y96.336 E41.29
G0 F7500 X98.983 Y96.619
G1 F1500 X99.515 Y96.086 E41.32757
G1 X100.662 Y95.39 E41.3945
G1 X108.971 Y92.692 E41.83035
G1 X110.059 Y92.601 E41.88482
G1 X110.86 Y92.641 E41.92483
G1 X119.328 Y95.387 E42.36896
G1 X120.399 Y96.029 E42.43125
G1 X121.006 Y96.581 E42.47219
G1 X126.143 Y103.657 E42.90843
G1 X126.611 Y104.804 E42.97023
G1 X126.787 Y105.468 E43.0045
G1 X126.786 Y114.528 E43.45651
G1 X126.242 Y116.207 E43.54456
G1 X121.017 Y123.381 E43.98734
G1 X120.485 Y123.914 E44.02491
G1 X119.337 Y124.611 E44.09192
G1 X111.031 Y127.309 E44.52762
G1 X109.741 Y127.416 E44.5922
G1 X109.027 Y127.329 E44.62808
G1 X100.655 Y124.61 E45.06724
G1 X99.55 Y123.918 E45.13228
G1 X99.03 Y123.469 E45.16656
G1 X93.857 Y116.343 E45.60588
G1 X93.389 Y115.196 E45.66768
G1 X93.213 Y114.532 E45.70195
G1 X93.214 Y105.472 E46.15396
G1 X93.758 Y103.793 E46.24201
G1 X98.983 Y96.619 E46.68479
G0 F7500 X99.266 Y96.902
G1 F1500 X99.764 Y96.403 E46.71996
G1 X100.833 Y95.754 E46.78235
G1 X109.046 Y93.088 E47.21315
G1 X110.093 Y93 E47.26557
G1 X110.788 Y93.037 E47.30029
G1 X119.159 Y95.752 E47.73934
G1 X120.16 Y96.352 E47.79756
G1 X120.705 Y96.848 E47.83433
G1 X125.791 Y103.854 E48.26625
G1 X126.224 Y104.906 E48.32301
G1 X126.387 Y105.521 E48.35475
G1 X126.386 Y114.464 E48.80092
G1 X125.88 Y116.026 E48.88283
G1 X120.734 Y123.098 E49.31918
G1 X120.236 Y123.597 E49.35435
G1 X119.167 Y124.246 E49.41674
G1 X110.954 Y126.914 E49.84757
G1 X109.746 Y127.014 E49.90804
G1 X109.113 Y126.937 E49.93985
G1 X100.827 Y124.246 E50.3745
G1 X99.811 Y123.615 E50.43417
G1 X99.328 Y123.198 E50.466
G1 X94.209 Y116.146 E50.90075
G1 X93.776 Y115.094 E50.9575
G1 X93.613 Y114.479 E50.98925
G1 X93.614 Y105.536 E51.43541
G1 X94.12 Y103.974 E51.51733
G1 X99.266 Y96.902 E51.95367
G0 F7500 X99.549 Y97.185
G1 F1500 X100.013 Y96.72 E51.98645
G1 X101.003 Y96.119 E52.04423
G1 X109.123 Y93.483 E52.47015
G1 X110.126 Y93.399 E52.52036
G1 X110.716 Y93.433 E52.54985
G1 X118.99 Y96.117 E52.98381
G1 X119.921 Y96.675 E53.03797
G1 X120.405 Y97.115 E53.0706
G1 X125.441 Y104.053 E53.49831
G1 X125.837 Y105.008 E53.54989
G1 X125.987 Y105.574 E53.5791
G1 X125.986 Y114.403 E54.01958
G1 X125.52 Y115.84 E54.09495
G1 X120.451 Y122.815 E54.52512
G1 X119.987 Y123.28 E54.55789
G1 X118.997 Y123.881 E54.61567
G1 X110.877 Y126.519 E55.04163
G1 X109.751 Y126.612 E55.09799
G1 X109.199 Y126.545 E55.12573
G1 X101 Y123.882 E55.55582
G1 X100.073 Y123.312 E55.61011
G1 X99.624 Y122.924 E55.63972
G1 X94.559 Y115.947 E56.06985
G1 X94.163 Y114.992 E56.12143
G1 X94.013 Y114.426 E56.15064
G1 X94.014 Y105.597 E56.59112
G1 X94.48 Y104.16 E56.66649
G1 X99.549 Y97.185 E57.09666
G0 F7500 X99.873 Y97.42
G1 F1500 X100.262 Y97.037 E57.1239
G1 X101.173 Y96.484 E57.17707
G1 X109.2 Y93.878 E57.59811
G1 X110.159 Y93.798 E57.64612
G1 X110.643 Y93.829 E57.67032
G1 X118.821 Y96.482 E58.09925
G1 X119.682 Y96.998 E58.14933
G1 X120.104 Y97.382 E58.1778
G1 X125.089 Y104.249 E58.60115
G1 X125.467 Y105.161 E58.6504
G1 X125.587 Y105.625 E58.67431
G1 X125.586 Y114.339 E59.10906
G1 X125.159 Y115.656 E59.17813
G1 X120.127 Y122.58 E59.60516
G1 X119.738 Y122.963 E59.63239
G1 X118.827 Y123.516 E59.68556
G1 X110.8 Y126.124 E60.10664
G1 X109.756 Y126.21 E60.1589
G1 X109.285 Y126.153 E60.18257
G1 X101.171 Y123.517 E60.6082
G1 X100.335 Y123.009 E60.65701
G1 X99.92 Y122.65 E60.68438
G1 X94.911 Y115.751 E61.10973
G1 X94.533 Y114.839 E61.15898
G1 X94.413 Y114.375 E61.18289
G1 X94.414 Y105.661 E61.61764
G1 X94.841 Y104.344 E61.68671
G1 X99.873 Y97.42 E62.11374
G0 F7500 X100.197 Y97.655
G1 F1500 X100.51 Y97.355 E62.13537
G1 X101.343 Y96.849 E62.18399
G1 X109.277 Y94.273 E62.60016
G1 X110.192 Y94.197 E62.64597
G1 X110.57 Y94.225 E62.66488
G1 X118.652 Y96.847 E63.08878
G1 X119.443 Y97.321 E63.13479
G1 X119.803 Y97.649 E63.15908
G1 X124.737 Y104.445 E63.57807
G1 X125.097 Y105.314 E63.625
G1 X125.187 Y105.676 E63.64361
G1 X125.186 Y114.275 E64.07262
G1 X124.798 Y115.472 E64.13539
G1 X119.803 Y122.345 E64.55928
G1 X119.49 Y122.645 E64.58091
G1 X118.657 Y123.151 E64.62953
G1 X110.724 Y125.729 E65.04569
G1 X109.762 Y125.808 E65.09384
G1 X109.37 Y125.76 E65.11355
G1 X101.341 Y123.152 E65.53472
G1 X100.543 Y122.667 E65.5813
G1 X100.219 Y122.38 E65.6029
G1 X95.263 Y115.555 E66.0237
G1 X94.903 Y114.686 E66.07063
G1 X94.813 Y114.324 E66.08924
G1 X94.814 Y105.725 E66.51825
G1 X95.202 Y104.528 E66.58102
G1 X100.197 Y97.655 E67.00491
G0 F7500 X100.521 Y97.89
G1 F1500 X100.753 Y97.676 E67.02066
G1 X101.513 Y97.214 E67.06503
G1 X109.354 Y94.668 E67.47632
G1 X110.225 Y94.596 E67.51993
G1 X110.493 Y94.62 E67.53335
G1 X118.483 Y97.212 E67.95242
G1 X119.204 Y97.644 E67.99436
G1 X119.503 Y97.916 E68.01452
G1 X124.385 Y104.641 E68.42912
G1 X124.727 Y105.467 E68.47372
G1 X124.787 Y105.726 E68.48699
G1 X124.786 Y114.211 E68.9103
G1 X124.437 Y115.288 E68.96679
G1 X119.479 Y122.11 E69.38753
G1 X119.247 Y122.324 E69.40328
G1 X118.487 Y122.786 E69.44765
G1 X110.648 Y125.334 E69.85888
G1 X109.768 Y125.406 E69.90293
G1 X109.456 Y125.368 E69.91861
G1 X101.511 Y122.787 E70.33538
G1 X100.751 Y122.325 E70.37975
G1 X100.519 Y122.111 E70.3955
G1 X95.615 Y115.359 E70.81183
G1 X95.273 Y114.533 E70.85643
G1 X95.213 Y114.274 E70.8697
G1 X95.214 Y105.789 E71.29301
G1 X95.563 Y104.712 E71.3495
G1 X100.521 Y97.89 E71.77024
G0 F7500 X100.845 Y98.125
G1 F1500 X100.961 Y98.018 E71.77811
G1 X101.683 Y97.579 E71.82027
G1 X109.43 Y95.063 E72.22664
G1 X110.258 Y94.995 E72.26809
G1 X110.414 Y95.014 E72.27593
G1 X118.314 Y97.577 E72.69028
G1 X118.965 Y97.967 E72.72815
G1 X119.202 Y98.183 E72.74414
G1 X124.033 Y104.837 E73.15438
G1 X124.357 Y105.62 E73.19666
G1 X124.387 Y105.773 E73.20443
G1 X124.386 Y114.147 E73.62222
G1 X124.076 Y115.104 E73.6724
G1 X119.155 Y121.875 E74.09
G1 X119.039 Y121.982 E74.09787
G1 X118.317 Y122.421 E74.14003
G1 X110.571 Y124.939 E74.54639
G1 X109.736 Y125.007 E74.58818
G1 X109.58 Y124.988 E74.59602
G1 X101.681 Y122.422 E75.01038
G1 X100.959 Y121.983 E75.05253
G1 X100.843 Y121.876 E75.06041
G1 X95.967 Y115.163 E75.47434
G1 X95.643 Y114.38 E75.51662
G1 X95.613 Y114.227 E75.5244
G1 X95.614 Y105.853 E75.94218
G1 X95.924 Y104.896 E75.99237
G1 X100.845 Y98.125 E76.40997
G0 F7500 X101.169 Y98.36
G1 F1500 X101.853 Y97.944 E76.44991
G1 X109.506 Y95.458 E76.85136
G1 X110.291 Y95.394 E76.89065
G1 X118.147 Y97.943 E77.3027
G1 X118.76 Y98.31 E77.33835
G1 X118.878 Y98.418 E77.34633
G1 X123.681 Y105.033 E77.75417
G1 X123.987 Y105.773 E77.79412
G1 X123.986 Y114.083 E78.20871
G1 X123.715 Y114.92 E78.2526
G1 X118.831 Y121.64 E78.66705
G1 X118.147 Y122.056 E78.70699
G1 X110.494 Y124.544 E79.10847
G1 X109.704 Y124.608 E79.14802
G1 X101.851 Y122.057 E79.55996
G1 X101.167 Y121.641 E79.5999
G1 X96.319 Y114.967 E80.01144
G1 X96.013 Y114.227 E80.05139
G1 X96.014 Y105.917 E80.46598
G1 X96.285 Y105.08 E80.50987
G1 X101.169 Y98.36 E80.92433
G0 F7500 X101.446 Y98.66
G1 F1500 X102.023 Y98.309 E80.95802
G1 X109.583 Y95.853 E81.35459
G1 X110.246 Y95.799 E81.38778
G1 X117.978 Y98.308 E81.79333
G1 X118.554 Y98.653 E81.82683
G1 X123.329 Y105.229 E82.23228
G1 X123.587 Y105.853 E82.26596
G1 X123.586 Y114.019 E82.67337
G1 X123.354 Y114.736 E82.71096
G1 X118.554 Y121.34 E83.11827
G1 X117.977 Y121.691 E83.15197
G1 X110.417 Y124.149 E83.54857
G1 X109.75 Y124.203 E83.58196
G1 X102.021 Y121.692 E83.9874
G1 X101.444 Y121.341 E84.02109
G1 X96.671 Y114.771 E84.42624
G1 X96.413 Y114.147 E84.45993
G1 X96.414 Y105.981 E84.86733
G1 X96.646 Y105.264 E84.90493
G1 X101.446 Y98.66 E85.31224
G0 F7500 X101.723 Y98.96
G1 F1500 X102.193 Y98.674 E85.33969
G1 X109.66 Y96.248 E85.73138
G1 X110.201 Y96.204 E85.75846
G1 X117.809 Y98.673 E86.15752
G1 X118.278 Y98.954 E86.18479
G1 X122.977 Y105.425 E86.58377
G1 X123.187 Y105.933 E86.6112
G1 X123.186 Y113.958 E87.01157
G1 X122.994 Y114.55 E87.04262
G1 X118.277 Y121.04 E87.44289
G1 X117.807 Y121.326 E87.47034
G1 X110.34 Y123.754 E87.86207
G1 X109.796 Y123.798 E87.8893
G1 X102.191 Y121.327 E88.28824
G1 X101.721 Y121.041 E88.31569
G1 X97.023 Y114.575 E88.71443
G1 X96.813 Y114.067 E88.74186
G1 X96.814 Y106.042 E89.14223
G1 X97.006 Y105.45 E89.17328
G1 X101.723 Y98.96 E89.57355
G0 F7500 X102 Y99.26
G1 F1500 X102.363 Y99.039 E89.59475
G1 X109.737 Y96.643 E89.98158
G1 X110.156 Y96.609 E90.00255
G1 X117.64 Y99.038 E90.3951
G1 X118.002 Y99.255 E90.41616
G1 X122.625 Y105.621 E90.80867
G1 X122.787 Y106.013 E90.82983
G1 X122.786 Y113.894 E91.22302
G1 X122.633 Y114.366 E91.24777
G1 X118 Y120.74 E91.6409
G1 X117.637 Y120.961 E91.6621
G1 X110.263 Y123.359 E92.04896
G1 X109.842 Y123.393 E92.07003
G1 X102.361 Y120.962 E92.46247
G1 X101.998 Y120.741 E92.48367
G1 X97.375 Y114.379 E92.87602
G1 X97.213 Y113.987 E92.89718
G1 X97.214 Y106.106 E93.29037
G1 X97.367 Y105.634 E93.31512
G1 X102 Y99.26 E93.70825
G0 F7500 X102.555 Y99.857
G1 F1500 X102.655 Y99.785 E93.7144
G1 X109.938 Y97.418 E94.09646
G1 X110.062 Y97.418 E94.10264
G1 X117.348 Y99.783 E94.48481
G1 X117.448 Y99.855 E94.49096
G1 X121.949 Y106.052 E94.87308
G1 X121.987 Y106.17 E94.87926
G1 X121.986 Y113.83 E95.26142
G1 X121.948 Y113.948 E95.2676
